X:1
T:Cockies of Bungaree
M:6/8
L:1/4
K:D
 A,/2| D D/2 D D/2| D E/2 F F/2| E D/2 D D/2| D3/2- D F/2| G G/2 G F/2|\
 E E/2 E D/2| C A/4A/4 A A/2| A3/2- A A/4A/4| B B/2 B A/2| G F/2 E G/2|\
 A A/2 A G/2| F3/2- F A,/4A,/4| D/2D/2D/2 D E/2| F G/2 A G/2| F D/2 E C/2|\
 D3/2- D||
